!!!COM:	Anonymous
!!!OTL:	Puisque vous / Je ne vous ameray
!!!AGN:	Song; Chanson
!!!SCT:	Ano3031
!!!SCA:	Ano3031
!!!SMS:	Pix&eacute;r&eacute;court Chansonnier
!!!folio:	
!!!voices:	4
**kern	**kern	**kern	**kern
*staff4	*staff3	*staff2	*staff1
*Ivox	*Ivox	*Ivox	*Ivox
*I"Contratenor2	*I"Tenor	*I"Contratenor1	*I"Superius
*I'Ct2	*I'T	*I'Ct1	*I'S
*clefGv2	*clefGv2	*clefGv2	*clefG2
*k[b-]	*k[b-]	*k[b-]	*k[]
*M2/1	*M2/1	*M2/1	*M2/1
*met(C|)	*met(C|)	*met(C|)	*met(C|)
=1-	=1-	=1-	=1-
0r	0r	0c	0cc
=2	=2	=2	=2
0r	2c	0A	0cc
.	2c	.	.
.	1c	.	.
=3	=3	=3	=3
0r	1d	0G	0b-i
.	1e	.	.
=4	=4	=4	=4
0r	1.f	0F	1a
.	.	.	1a
.	2e	.	.
=5	=5	=5	=5
0r	0c	1r	1.a
.	.	1A	.
.	.	.	2g
=6	=6	=6	=6
0r	1d	1G	1b-
.	2c	1A	[1cc
.	2B-	.	.
=7	=7	=7	=7
0r	1A	1c	2cc]
.	.	.	2a
.	1G	2d	[1b-i
.	.	2e	.
=8	=8	=8	=8
1d	0r	1f	2b-]
.	.	.	2a
2c	.	2e	[1g
2B-	.	[2d	.
=9	=9	=9	=9
1A	0r	2d]	2g]
.	.	2c	2f#i
1G	.	1d	1g
=10	=10	=10	=10
2c	0r	1e	1r
2c	.	.	.
1c	.	1r	1cc
=11	=11	=11	=11
1d	0r	1f	1b
1e	.	1g	1cc
=12	=12	=12	=12
1.f	0r	1.a	1dd
.	.	.	1dd
2e	.	2g	.
=13	=13	=13	=13
0c	0r	1g	1ee
.	.	1e	1cc
=14	=14	=14	=14
1d	0r	1.f	2b
.	.	.	1b
1d	.	.	.
.	.	2e	2a
=15	=15	=15	=15
0c	0r	1.g	[0cc
.	.	2e	.
=16	=16	=16	=16
0F	1r	2f	0cc]
.	.	2e	.
.	1f	1c	.
=17	=17	=17	=17
0r	1f	0d	1r
.	1f	.	1a
=18	=18	=18	=18
0r	1e	1r	1g
.	1f	1d	1a
=19	=19	=19	=19
0r	1g	1G	1b
.	1e	1A	1cc
=20	=20	=20	=20
1r	0d	1.B-	1.dd
1f	.	.	.
.	.	2c	2cc
=21	=21	=21	=21
1f	0r	0d	1a
1f	.	.	1dd
=22	=22	=22	=22
1e	0r	1r	2.cc
.	.	.	4b
1f	.	1d	1dd
=23	=23	=23	=23
1g	0r	1c	1ee
1e	.	1g	2cc
.	.	.	2b
=24	=24	=24	=24
1d	1r	1f	0dd
1r	1d	[1a	.
=25	=25	=25	=25
0r	1d	1a]	0r
.	1d	[1f	.
=26	=26	=26	=26
0r	2d	2f]	[0a
.	2d	2d	.
.	1d	1f	.
=27	=27	=27	=27
0r	1c	1e	1a]
.	1d	2f	1a
.	.	2g	.
=28	=28	=28	=28
0r	1.f	1.a	0d
.	2e	2g	.
=29	=29	=29	=29
0r	1d	1f	1a
.	1r	1d	1b
=30	=30	=30	=30
0r	2e	1r	1g
.	2e	.	.
.	1e	1c	1cc
=31	=31	=31	=31
0r	1d	1G	2b
.	.	.	2a
.	1c	1A	1cc
=32	=32	=32	=32
2e	0r	1c	1r
2e	.	.	.
1e	.	2r	1cc
.	.	2g	.
=33	=33	=33	=33
1d	0r	2f	1dd
.	.	2e	.
1c	.	[1g	1ee
=34	=34	=34	=34
2c	0r	1g]	1ee
2c	.	.	.
1c	.	1r	1ee
=35	=35	=35	=35
1d	0r	1G	2dd
.	.	.	2b
1e	.	1c	1cc
=36	=36	=36	=36
1.f	0r	2B-	1dd
.	.	2A	.
.	.	1F	1ff
2e	.	.	.
=37	=37	=37	=37
0d	0r	0B-	2.ff
.	.	.	4ee
.	.	.	2.dd
.	.	.	8ccL
.	.	.	8bJ
=38	=38	=38	=38
1e	0r	1c	1cc
1d	.	1G	1dd
=39	=39	=39	=39
0c	1r	0g	2ee
.	.	.	2cc
.	1e	.	[1cc
=40	=40	=40	=40
0G	1d	[0gl	1cc]
.	1d	.	1b
=41	=41	=41	=41
0g	[0cl	0g_	[0ccl
=42	=42	=42	=42
0gl	0c]	0g]	0cc]
==	==	==	==
*-	*-	*-	*-
!!!RDF**kern: l=long note in original notation
!!!RDF**kern: i=editorial accidental
!!!ENC:	Chris Gage 03-05-2015
!!!END:	2015/03/13/
!!!EED:	Jesse Rodin
!!!EEV:	2016/02/22/
!!!ONB:	Translated from MusicXML and edited on 2016/02/22/ by Craig Sapp
!!muse2ps: C^@{COM}\n@{SMS} @{folio}^v85,85,85,150Q16
